X:47
T:Otter's Holt, The
R:reel
Z:Transcribed by Dave Marshall
M:C|
K:Bm
|:fBBA FEFB|A2FB ABde|fBBA FEFA|BdcA ~B3e|
fBBA FEFB|A2FB ABde|faaf effe| dBBA B4 :|
|:d2fd Adfa|bfaf effe|d2fd Adfa|bfaf ~e3f|
d2fd Adfa|bfaf efde|fBBA FEFA|BdcA B4 :|
